X:1
T:Title
%%score { ( 1 3 ) | ( 2 4 ) }
L:1/8
M:4/4
K:Ab
V:1 treble nm="Grand Piano"
V:3 treble 
V:2 bass 
V:4 bass 
V:1
 z4 z[Q:1/4=100] EAd | c6 z2 | c6 z2 | d6 c2 | B4- BEAd | c6 z2 | e6 z2 | [CE]2 [EA]2 [Ac]3 [DEB] | %8
[M:3/4] [CEA]6 |[M:1/4] z2 |[M:4/4] c6 z2 | d6 z2 | [Ee]2 c2 B3 [=Dc] | B4- BEAd | c6 z2 | e6 z2 | %16
 E2 A2 c3 B |[M:5/8] [CEA]-[CEA]- [CEA]3 |] %18
V:2
 z8 | z [A,,A,][A,,A,][A,,A,] .[A,,A,]2 z2 | z [A,,A,][A,,A,][A,,A,] .[A,,A,]2 z2 | %3
 z E,[E,G,][E,B,] [E,B,]2 [E,A,]2 | [E,G,E]6 z2 | z [A,,A,][A,,A,][A,,A,] .[A,,A,]2 z2 | %6
 z [C,A,][C,A,][C,A,] [C,A,][D,A,][D,A,][D,A,] | E,2- [E,-C]2 [E,E]2- [E,E-]/E/E, |[M:3/4] A,,6 | %9
[M:1/4][K:treble] Ec |[M:4/4][K:bass] [A,,A,][A,,A,] [A,,A,]4 z2 | [D,A,]D, D,2- D,D,B,,A,, | %12
 [C,A,]2 [A,E]2 [F,A,=D]3 [B,,A,] | [E,G,D]6 z2 | z [A,,A,][A,,A,][A,,A,] .[A,,A,]2 z2 | %15
 z [C,A,][C,A,][C,A,] [C,A,][D,A,][D,A,][D,A,D] | E,2- [E,-CE]2 [E,EA]2- [E,E-A-]/[EA]/[E,DE] | %17
[M:5/8] A,,-A,,- A,,3 |] %18
V:3
 x8 | z EEE Ec_cc | z EEE EFBc | z GGG G2 AE | x8 | z EEE EcBc | z _GGG G[Fd][Ec][DB] | x8 | %8
[M:3/4] x6 |[M:1/4] x2 |[M:4/4] EE E4 Fd | F[A,F] [A,F]2- [A,F][A,DF][B,EG][CEA] | x8 | x8 | %14
 z EEE EcBc | z _GGG G[Fd][Ec]B | x8 |[M:5/8] x5 |] %18
V:4
 x8 | x8 | x8 | x8 | x8 | x8 | x8 | A,2 z2 z4 |[M:3/4] x6 |[M:1/4][K:treble] x2 | %10
[M:4/4][K:bass] x8 | x8 | x8 | x8 | x8 | x8 | [A,C]2 z2 z4 |[M:5/8] x5 |] %18

